HALD36.cube
LUT_3D_SIZE 8
0.0000000000 0.0000000000 0.0000000000
0.0176419523 0.0000000000 0.0000000000
0.0648032799 0.0000000000 0.0000000000
0.1529261619 0.0000000000 0.0000000000
0.2831487954 0.0000000000 0.0000000000
0.4677838385 0.0000000000 0.0000000000
0.7011020184 0.0000000000 0.0000000000
1.0000000000 0.0000000000 0.0000000000
0.0000000000 0.0176419523 0.0000000000
0.0176419523 0.0176419523 0.0000000000
0.0648032799 0.0176419523 0.0000000000
0.1529261619 0.0176419523 0.0000000000
0.2831487954 0.0176419523 0.0000000000
0.4677838385 0.0176419523 0.0000000000
0.7011020184 0.0176419523 0.0000000000
1.0000000000 0.0176419523 0.0000000000
0.0000000000 0.0648032799 0.0000000000
0.0176419523 0.0648032799 0.0000000000
0.0648032799 0.0648032799 0.0000000000
0.1529261619 0.0648032799 0.0000000000
0.2831487954 0.0648032799 0.0000000000
0.4677838385 0.0648032799 0.0000000000
0.7011020184 0.0648032799 0.0000000000
1.0000000000 0.0648032799 0.0000000000
0.0000000000 0.1529261619 0.0000000000
0.0176419523 0.1529261619 0.0000000000
0.0648032799 0.1529261619 0.0000000000
0.1529261619 0.1529261619 0.0000000000
0.2831487954 0.1529261619 0.0000000000
0.4677838385 0.1529261619 0.0000000000
0.7011020184 0.1529261619 0.0000000000
1.0000000000 0.1529261619 0.0000000000
0.0000000000 0.2831487954 0.0000000000
0.0176419523 0.2831487954 0.0000000000
0.0648032799 0.2831487954 0.0000000000
0.1529261619 0.2831487954 0.0000000000
0.2831487954 0.2831487954 0.0000000000
0.4677838385 0.2831487954 0.0000000000
0.7011020184 0.2831487954 0.0000000000
1.0000000000 0.2831487954 0.0000000000
0.0000000000 0.4677838385 0.0000000000
0.0176419523 0.4677838385 0.0000000000
0.0648032799 0.4677838385 0.0000000000
0.1529261619 0.4677838385 0.0000000000
0.2831487954 0.4677838385 0.0000000000
0.4677838385 0.4677838385 0.0000000000
0.7011020184 0.4677838385 0.0000000000
1.0000000000 0.4677838385 0.0000000000
0.0000000000 0.7011020184 0.0000000000
0.0176419523 0.7011020184 0.0000000000
0.0648032799 0.7011020184 0.0000000000
0.1529261619 0.7011020184 0.0000000000
0.2831487954 0.7011020184 0.0000000000
0.4677838385 0.7011020184 0.0000000000
0.7011020184 0.7011020184 0.0000000000
1.0000000000 0.7011020184 0.0000000000
0.0000000000 1.0000000000 0.0000000000
0.0176419523 1.0000000000 0.0000000000
0.0648032799 1.0000000000 0.0000000000
0.1529261619 1.0000000000 0.0000000000
0.2831487954 1.0000000000 0.0000000000
0.4677838385 1.0000000000 0.0000000000
0.7011020184 1.0000000000 0.0000000000
1.0000000000 1.0000000000 0.0000000000
0.0000000000 0.0000000000 0.0176419523
0.0176419523 0.0000000000 0.0176419523
0.0648032799 0.0000000000 0.0176419523
0.1529261619 0.0000000000 0.0176419523
0.2831487954 0.0000000000 0.0176419523
0.4677838385 0.0000000000 0.0176419523
0.7011020184 0.0000000000 0.0176419523
1.0000000000 0.0000000000 0.0176419523
0.0000000000 0.0176419523 0.0176419523
0.0176419523 0.0176419523 0.0176419523
0.0648032799 0.0176419523 0.0176419523
0.1529261619 0.0176419523 0.0176419523
0.2831487954 0.0176419523 0.0176419523
0.4677838385 0.0176419523 0.0176419523
0.7011020184 0.0176419523 0.0176419523
1.0000000000 0.0176419523 0.0176419523
0.0000000000 0.0648032799 0.0176419523
0.0176419523 0.0648032799 0.0176419523
0.0648032799 0.0648032799 0.0176419523
0.1529261619 0.0648032799 0.0176419523
0.2831487954 0.0648032799 0.0176419523
0.4677838385 0.0648032799 0.0176419523
0.7011020184 0.0648032799 0.0176419523
1.0000000000 0.0648032799 0.0176419523
0.0000000000 0.1529261619 0.0176419523
0.0176419523 0.1529261619 0.0176419523
0.0648032799 0.1529261619 0.0176419523
0.1529261619 0.1529261619 0.0176419523
0.2831487954 0.1529261619 0.0176419523
0.4677838385 0.1529261619 0.0176419523
0.7011020184 0.1529261619 0.0176419523
1.0000000000 0.1529261619 0.0176419523
0.0000000000 0.2831487954 0.0176419523
0.0176419523 0.2831487954 0.0176419523
0.0648032799 0.2831487954 0.0176419523
0.1529261619 0.2831487954 0.0176419523
0.2831487954 0.2831487954 0.0176419523
0.4677838385 0.2831487954 0.0176419523
0.7011020184 0.2831487954 0.0176419523
1.0000000000 0.2831487954 0.0176419523
0.0000000000 0.4677838385 0.0176419523
0.0176419523 0.4677838385 0.0176419523
0.0648032799 0.4677838385 0.0176419523
0.1529261619 0.4677838385 0.0176419523
0.2831487954 0.4677838385 0.0176419523
0.4677838385 0.4677838385 0.0176419523
0.7011020184 0.4677838385 0.0176419523
1.0000000000 0.4677838385 0.0176419523
0.0000000000 0.7011020184 0.0176419523
0.0176419523 0.7011020184 0.0176419523
0.0648032799 0.7011020184 0.0176419523
0.1529261619 0.7011020184 0.0176419523
0.2831487954 0.7011020184 0.0176419523
0.4677838385 0.7011020184 0.0176419523
0.7011020184 0.7011020184 0.0176419523
1.0000000000 0.7011020184 0.0176419523
0.0000000000 1.0000000000 0.0176419523
0.0176419523 1.0000000000 0.0176419523
0.0648032799 1.0000000000 0.0176419523
0.1529261619 1.0000000000 0.0176419523
0.2831487954 1.0000000000 0.0176419523
0.4677838385 1.0000000000 0.0176419523
0.7011020184 1.0000000000 0.0176419523
1.0000000000 1.0000000000 0.0176419523
0.0000000000 0.0000000000 0.0648032799
0.0176419523 0.0000000000 0.0648032799
0.0648032799 0.0000000000 0.0648032799
0.1529261619 0.0000000000 0.0648032799
0.2831487954 0.0000000000 0.0648032799
0.4677838385 0.0000000000 0.0648032799
0.7011020184 0.0000000000 0.0648032799
1.0000000000 0.0000000000 0.0648032799
0.0000000000 0.0176419523 0.0648032799
0.0176419523 0.0176419523 0.0648032799
0.0648032799 0.0176419523 0.0648032799
0.1529261619 0.0176419523 0.0648032799
0.2831487954 0.0176419523 0.0648032799
0.4677838385 0.0176419523 0.0648032799
0.7011020184 0.0176419523 0.0648032799
1.0000000000 0.0176419523 0.0648032799
0.0000000000 0.0648032799 0.0648032799
0.0176419523 0.0648032799 0.0648032799
0.0648032799 0.0648032799 0.0648032799
0.1529261619 0.0648032799 0.0648032799
0.2831487954 0.0648032799 0.0648032799
0.4677838385 0.0648032799 0.0648032799
0.7011020184 0.0648032799 0.0648032799
1.0000000000 0.0648032799 0.0648032799
0.0000000000 0.1529261619 0.0648032799
0.0176419523 0.1529261619 0.0648032799
0.0648032799 0.1529261619 0.0648032799
0.1529261619 0.1529261619 0.0648032799
0.2831487954 0.1529261619 0.0648032799
0.4677838385 0.1529261619 0.0648032799
0.7011020184 0.1529261619 0.0648032799
1.0000000000 0.1529261619 0.0648032799
0.0000000000 0.2831487954 0.0648032799
0.0176419523 0.2831487954 0.0648032799
0.0648032799 0.2831487954 0.0648032799
0.1529261619 0.2831487954 0.0648032799
0.2831487954 0.2831487954 0.0648032799
0.4677838385 0.2831487954 0.0648032799
0.7011020184 0.2831487954 0.0648032799
1.0000000000 0.2831487954 0.0648032799
0.0000000000 0.4677838385 0.0648032799
0.0176419523 0.4677838385 0.0648032799
0.0648032799 0.4677838385 0.0648032799
0.1529261619 0.4677838385 0.0648032799
0.2831487954 0.4677838385 0.0648032799
0.4677838385 0.4677838385 0.0648032799
0.7011020184 0.4677838385 0.0648032799
1.0000000000 0.4677838385 0.0648032799
0.0000000000 0.7011020184 0.0648032799
0.0176419523 0.7011020184 0.0648032799
0.0648032799 0.7011020184 0.0648032799
0.1529261619 0.7011020184 0.0648032799
0.2831487954 0.7011020184 0.0648032799
0.4677838385 0.7011020184 0.0648032799
0.7011020184 0.7011020184 0.0648032799
1.0000000000 0.7011020184 0.0648032799
0.0000000000 1.0000000000 0.0648032799
0.0176419523 1.0000000000 0.0648032799
0.0648032799 1.0000000000 0.0648032799
0.1529261619 1.0000000000 0.0648032799
0.2831487954 1.0000000000 0.0648032799
0.4677838385 1.0000000000 0.0648032799
0.7011020184 1.0000000000 0.0648032799
1.0000000000 1.0000000000 0.0648032799
0.0000000000 0.0000000000 0.1529261619
0.0176419523 0.0000000000 0.1529261619
0.0648032799 0.0000000000 0.1529261619
0.1529261619 0.0000000000 0.1529261619
0.2831487954 0.0000000000 0.1529261619
0.4677838385 0.0000000000 0.1529261619
0.7011020184 0.0000000000 0.1529261619
1.0000000000 0.0000000000 0.1529261619
0.0000000000 0.0176419523 0.1529261619
0.0176419523 0.0176419523 0.1529261619
0.0648032799 0.0176419523 0.1529261619
0.1529261619 0.0176419523 0.1529261619
0.2831487954 0.0176419523 0.1529261619
0.4677838385 0.0176419523 0.1529261619
0.7011020184 0.0176419523 0.1529261619
1.0000000000 0.0176419523 0.1529261619
0.0000000000 0.0648032799 0.1529261619
0.0176419523 0.0648032799 0.1529261619
0.0648032799 0.0648032799 0.1529261619
0.1529261619 0.0648032799 0.1529261619
0.2831487954 0.0648032799 0.1529261619
0.4677838385 0.0648032799 0.1529261619
0.7011020184 0.0648032799 0.1529261619
1.0000000000 0.0648032799 0.1529261619
0.0000000000 0.1529261619 0.1529261619
0.0176419523 0.1529261619 0.1529261619
0.0648032799 0.1529261619 0.1529261619
0.1529261619 0.1529261619 0.1529261619
0.2831487954 0.1529261619 0.1529261619
0.4677838385 0.1529261619 0.1529261619
0.7011020184 0.1529261619 0.1529261619
1.0000000000 0.1529261619 0.1529261619
0.0000000000 0.2831487954 0.1529261619
0.0176419523 0.2831487954 0.1529261619
0.0648032799 0.2831487954 0.1529261619
0.1529261619 0.2831487954 0.1529261619
0.2831487954 0.2831487954 0.1529261619
0.4677838385 0.2831487954 0.1529261619
0.7011020184 0.2831487954 0.1529261619
1.0000000000 0.2831487954 0.1529261619
0.0000000000 0.4677838385 0.1529261619
0.0176419523 0.4677838385 0.1529261619
0.0648032799 0.4677838385 0.1529261619
0.1529261619 0.4677838385 0.1529261619
0.2831487954 0.4677838385 0.1529261619
0.4677838385 0.4677838385 0.1529261619
0.7011020184 0.4677838385 0.1529261619
1.0000000000 0.4677838385 0.1529261619
0.0000000000 0.7011020184 0.1529261619
0.0176419523 0.7011020184 0.1529261619
0.0648032799 0.7011020184 0.1529261619
0.1529261619 0.7011020184 0.1529261619
0.2831487954 0.7011020184 0.1529261619
0.4677838385 0.7011020184 0.1529261619
0.7011020184 0.7011020184 0.1529261619
1.0000000000 0.7011020184 0.1529261619
0.0000000000 1.0000000000 0.1529261619
0.0176419523 1.0000000000 0.1529261619
0.0648032799 1.0000000000 0.1529261619
0.1529261619 1.0000000000 0.1529261619
0.2831487954 1.0000000000 0.1529261619
0.4677838385 1.0000000000 0.1529261619
0.7011020184 1.0000000000 0.1529261619
1.0000000000 1.0000000000 0.1529261619
0.0000000000 0.0000000000 0.2831487954
0.0176419523 0.0000000000 0.2831487954
0.0648032799 0.0000000000 0.2831487954
0.1529261619 0.0000000000 0.2831487954
0.2831487954 0.0000000000 0.2831487954
0.4677838385 0.0000000000 0.2831487954
0.7011020184 0.0000000000 0.2831487954
1.0000000000 0.0000000000 0.2831487954
0.0000000000 0.0176419523 0.2831487954
0.0176419523 0.0176419523 0.2831487954
0.0648032799 0.0176419523 0.2831487954
0.1529261619 0.0176419523 0.2831487954
0.2831487954 0.0176419523 0.2831487954
0.4677838385 0.0176419523 0.2831487954
0.7011020184 0.0176419523 0.2831487954
1.0000000000 0.0176419523 0.2831487954
0.0000000000 0.0648032799 0.2831487954
0.0176419523 0.0648032799 0.2831487954
0.0648032799 0.0648032799 0.2831487954
0.1529261619 0.0648032799 0.2831487954
0.2831487954 0.0648032799 0.2831487954
0.4677838385 0.0648032799 0.2831487954
0.7011020184 0.0648032799 0.2831487954
1.0000000000 0.0648032799 0.2831487954
0.0000000000 0.1529261619 0.2831487954
0.0176419523 0.1529261619 0.2831487954
0.0648032799 0.1529261619 0.2831487954
0.1529261619 0.1529261619 0.2831487954
0.2831487954 0.1529261619 0.2831487954
0.4677838385 0.1529261619 0.2831487954
0.7011020184 0.1529261619 0.2831487954
1.0000000000 0.1529261619 0.2831487954
0.0000000000 0.2831487954 0.2831487954
0.0176419523 0.2831487954 0.2831487954
0.0648032799 0.2831487954 0.2831487954
0.1529261619 0.2831487954 0.2831487954
0.2831487954 0.2831487954 0.2831487954
0.4677838385 0.2831487954 0.2831487954
0.7011020184 0.2831487954 0.2831487954
1.0000000000 0.2831487954 0.2831487954
0.0000000000 0.4677838385 0.2831487954
0.0176419523 0.4677838385 0.2831487954
0.0648032799 0.4677838385 0.2831487954
0.1529261619 0.4677838385 0.2831487954
0.2831487954 0.4677838385 0.2831487954
0.4677838385 0.4677838385 0.2831487954
0.7011020184 0.4677838385 0.2831487954
1.0000000000 0.4677838385 0.2831487954
0.0000000000 0.7011020184 0.2831487954
0.0176419523 0.7011020184 0.2831487954
0.0648032799 0.7011020184 0.2831487954
0.1529261619 0.7011020184 0.2831487954
0.2831487954 0.7011020184 0.2831487954
0.4677838385 0.7011020184 0.2831487954
0.7011020184 0.7011020184 0.2831487954
1.0000000000 0.7011020184 0.2831487954
0.0000000000 1.0000000000 0.2831487954
0.0176419523 1.0000000000 0.2831487954
0.0648032799 1.0000000000 0.2831487954
0.1529261619 1.0000000000 0.2831487954
0.2831487954 1.0000000000 0.2831487954
0.4677838385 1.0000000000 0.2831487954
0.7011020184 1.0000000000 0.2831487954
1.0000000000 1.0000000000 0.2831487954
0.0000000000 0.0000000000 0.4677838385
0.0176419523 0.0000000000 0.4677838385
0.0648032799 0.0000000000 0.4677838385
0.1529261619 0.0000000000 0.4677838385
0.2831487954 0.0000000000 0.4677838385
0.4677838385 0.0000000000 0.4677838385
0.7011020184 0.0000000000 0.4677838385
1.0000000000 0.0000000000 0.4677838385
0.0000000000 0.0176419523 0.4677838385
0.0176419523 0.0176419523 0.4677838385
0.0648032799 0.0176419523 0.4677838385
0.1529261619 0.0176419523 0.4677838385
0.2831487954 0.0176419523 0.4677838385
0.4677838385 0.0176419523 0.4677838385
0.7011020184 0.0176419523 0.4677838385
1.0000000000 0.0176419523 0.4677838385
0.0000000000 0.0648032799 0.4677838385
0.0176419523 0.0648032799 0.4677838385
0.0648032799 0.0648032799 0.4677838385
0.1529261619 0.0648032799 0.4677838385
0.2831487954 0.0648032799 0.4677838385
0.4677838385 0.0648032799 0.4677838385
0.7011020184 0.0648032799 0.4677838385
1.0000000000 0.0648032799 0.4677838385
0.0000000000 0.1529261619 0.4677838385
0.0176419523 0.1529261619 0.4677838385
0.0648032799 0.1529261619 0.4677838385
0.1529261619 0.1529261619 0.4677838385
0.2831487954 0.1529261619 0.4677838385
0.4677838385 0.1529261619 0.4677838385
0.7011020184 0.1529261619 0.4677838385
1.0000000000 0.1529261619 0.4677838385
0.0000000000 0.2831487954 0.4677838385
0.0176419523 0.2831487954 0.4677838385
0.0648032799 0.2831487954 0.4677838385
0.1529261619 0.2831487954 0.4677838385
0.2831487954 0.2831487954 0.4677838385
0.4677838385 0.2831487954 0.4677838385
0.7011020184 0.2831487954 0.4677838385
1.0000000000 0.2831487954 0.4677838385
0.0000000000 0.4677838385 0.4677838385
0.0176419523 0.4677838385 0.4677838385
0.0648032799 0.4677838385 0.4677838385
0.1529261619 0.4677838385 0.4677838385
0.2831487954 0.4677838385 0.4677838385
0.4677838385 0.4677838385 0.4677838385
0.7011020184 0.4677838385 0.4677838385
1.0000000000 0.4677838385 0.4677838385
0.0000000000 0.7011020184 0.4677838385
0.0176419523 0.7011020184 0.4677838385
0.0648032799 0.7011020184 0.4677838385
0.1529261619 0.7011020184 0.4677838385
0.2831487954 0.7011020184 0.4677838385
0.4677838385 0.7011020184 0.4677838385
0.7011020184 0.7011020184 0.4677838385
1.0000000000 0.7011020184 0.4677838385
0.0000000000 1.0000000000 0.4677838385
0.0176419523 1.0000000000 0.4677838385
0.0648032799 1.0000000000 0.4677838385
0.1529261619 1.0000000000 0.4677838385
0.2831487954 1.0000000000 0.4677838385
0.4677838385 1.0000000000 0.4677838385
0.7011020184 1.0000000000 0.4677838385
1.0000000000 1.0000000000 0.4677838385
0.0000000000 0.0000000000 0.7011020184
0.0176419523 0.0000000000 0.7011020184
0.0648032799 0.0000000000 0.7011020184
0.1529261619 0.0000000000 0.7011020184
0.2831487954 0.0000000000 0.7011020184
0.4677838385 0.0000000000 0.7011020184
0.7011020184 0.0000000000 0.7011020184
1.0000000000 0.0000000000 0.7011020184
0.0000000000 0.0176419523 0.7011020184
0.0176419523 0.0176419523 0.7011020184
0.0648032799 0.0176419523 0.7011020184
0.1529261619 0.0176419523 0.7011020184
0.2831487954 0.0176419523 0.7011020184
0.4677838385 0.0176419523 0.7011020184
0.7011020184 0.0176419523 0.7011020184
1.0000000000 0.0176419523 0.7011020184
0.0000000000 0.0648032799 0.7011020184
0.0176419523 0.0648032799 0.7011020184
0.0648032799 0.0648032799 0.7011020184
0.1529261619 0.0648032799 0.7011020184
0.2831487954 0.0648032799 0.7011020184
0.4677838385 0.0648032799 0.7011020184
0.7011020184 0.0648032799 0.7011020184
1.0000000000 0.0648032799 0.7011020184
0.0000000000 0.1529261619 0.7011020184
0.0176419523 0.1529261619 0.7011020184
0.0648032799 0.1529261619 0.7011020184
0.1529261619 0.1529261619 0.7011020184
0.2831487954 0.1529261619 0.7011020184
0.4677838385 0.1529261619 0.7011020184
0.7011020184 0.1529261619 0.7011020184
1.0000000000 0.1529261619 0.7011020184
0.0000000000 0.2831487954 0.7011020184
0.0176419523 0.2831487954 0.7011020184
0.0648032799 0.2831487954 0.7011020184
0.1529261619 0.2831487954 0.7011020184
0.2831487954 0.2831487954 0.7011020184
0.4677838385 0.2831487954 0.7011020184
0.7011020184 0.2831487954 0.7011020184
1.0000000000 0.2831487954 0.7011020184
0.0000000000 0.4677838385 0.7011020184
0.0176419523 0.4677838385 0.7011020184
0.0648032799 0.4677838385 0.7011020184
0.1529261619 0.4677838385 0.7011020184
0.2831487954 0.4677838385 0.7011020184
0.4677838385 0.4677838385 0.7011020184
0.7011020184 0.4677838385 0.7011020184
1.0000000000 0.4677838385 0.7011020184
0.0000000000 0.7011020184 0.7011020184
0.0176419523 0.7011020184 0.7011020184
0.0648032799 0.7011020184 0.7011020184
0.1529261619 0.7011020184 0.7011020184
0.2831487954 0.7011020184 0.7011020184
0.4677838385 0.7011020184 0.7011020184
0.7011020184 0.7011020184 0.7011020184
1.0000000000 0.7011020184 0.7011020184
0.0000000000 1.0000000000 0.7011020184
0.0176419523 1.0000000000 0.7011020184
0.0648032799 1.0000000000 0.7011020184
0.1529261619 1.0000000000 0.7011020184
0.2831487954 1.0000000000 0.7011020184
0.4677838385 1.0000000000 0.7011020184
0.7011020184 1.0000000000 0.7011020184
1.0000000000 1.0000000000 0.7011020184
0.0000000000 0.0000000000 1.0000000000
0.0176419523 0.0000000000 1.0000000000
0.0648032799 0.0000000000 1.0000000000
0.1529261619 0.0000000000 1.0000000000
0.2831487954 0.0000000000 1.0000000000
0.4677838385 0.0000000000 1.0000000000
0.7011020184 0.0000000000 1.0000000000
1.0000000000 0.0000000000 1.0000000000
0.0000000000 0.0176419523 1.0000000000
0.0176419523 0.0176419523 1.0000000000
0.0648032799 0.0176419523 1.0000000000
0.1529261619 0.0176419523 1.0000000000
0.2831487954 0.0176419523 1.0000000000
0.4677838385 0.0176419523 1.0000000000
0.7011020184 0.0176419523 1.0000000000
1.0000000000 0.0176419523 1.0000000000
0.0000000000 0.0648032799 1.0000000000
0.0176419523 0.0648032799 1.0000000000
0.0648032799 0.0648032799 1.0000000000
0.1529261619 0.0648032799 1.0000000000
0.2831487954 0.0648032799 1.0000000000
0.4677838385 0.0648032799 1.0000000000
0.7011020184 0.0648032799 1.0000000000
1.0000000000 0.0648032799 1.0000000000
0.0000000000 0.1529261619 1.0000000000
0.0176419523 0.1529261619 1.0000000000
0.0648032799 0.1529261619 1.0000000000
0.1529261619 0.1529261619 1.0000000000
0.2831487954 0.1529261619 1.0000000000
0.4677838385 0.1529261619 1.0000000000
0.7011020184 0.1529261619 1.0000000000
1.0000000000 0.1529261619 1.0000000000
0.0000000000 0.2831487954 1.0000000000
0.0176419523 0.2831487954 1.0000000000
0.0648032799 0.2831487954 1.0000000000
0.1529261619 0.2831487954 1.0000000000
0.2831487954 0.2831487954 1.0000000000
0.4677838385 0.2831487954 1.0000000000
0.7011020184 0.2831487954 1.0000000000
1.0000000000 0.2831487954 1.0000000000
0.0000000000 0.4677838385 1.0000000000
0.0176419523 0.4677838385 1.0000000000
0.0648032799 0.4677838385 1.0000000000
0.1529261619 0.4677838385 1.0000000000
0.2831487954 0.4677838385 1.0000000000
0.4677838385 0.4677838385 1.0000000000
0.7011020184 0.4677838385 1.0000000000
1.0000000000 0.4677838385 1.0000000000
0.0000000000 0.7011020184 1.0000000000
0.0176419523 0.7011020184 1.0000000000
0.0648032799 0.7011020184 1.0000000000
0.1529261619 0.7011020184 1.0000000000
0.2831487954 0.7011020184 1.0000000000
0.4677838385 0.7011020184 1.0000000000
0.7011020184 0.7011020184 1.0000000000
1.0000000000 0.7011020184 1.0000000000
0.0000000000 1.0000000000 1.0000000000
0.0176419523 1.0000000000 1.0000000000
0.0648032799 1.0000000000 1.0000000000
0.1529261619 1.0000000000 1.0000000000
0.2831487954 1.0000000000 1.0000000000
0.4677838385 1.0000000000 1.0000000000
0.7011020184 1.0000000000 1.0000000000
1.0000000000 1.0000000000 1.0000000000
