HALD36.cube
LUT_3D_SIZE 36
0.0000000000 0.0000000000 0.0000000000
0.0021246888 0.0000000000 0.0000000000
0.0043914421 0.0000000000 0.0000000000
0.0074990317 0.0000000000 0.0000000000
0.0122864870 0.0000000000 0.0000000000
0.0176419523 0.0000000000 0.0000000000
0.0241576303 0.0000000000 0.0000000000
0.0331047624 0.0000000000 0.0000000000
0.0423114114 0.0000000000 0.0000000000
0.0528606549 0.0000000000 0.0000000000
0.0648032799 0.0000000000 0.0000000000
0.0802198276 0.0000000000 0.0000000000
0.0953074843 0.0000000000 0.0000000000
0.1119324341 0.0000000000 0.0000000000
0.1328683347 0.0000000000 0.0000000000
0.1529261619 0.0000000000 0.0000000000
0.1746473908 0.0000000000 0.0000000000
0.1980693042 0.0000000000 0.0000000000
0.2269658893 0.0000000000 0.0000000000
0.2541521788 0.0000000000 0.0000000000
0.2831487954 0.0000000000 0.0000000000
0.3185468316 0.0000000000 0.0000000000
0.3515326977 0.0000000000 0.0000000000
0.3864295185 0.0000000000 0.0000000000
0.4232677519 0.0000000000 0.0000000000
0.4677838385 0.0000000000 0.0000000000
0.5088814497 0.0000000000 0.0000000000
0.5520114899 0.0000000000 0.0000000000
0.6038274169 0.0000000000 0.0000000000
0.6514056921 0.0000000000 0.0000000000
0.7011020184 0.0000000000 0.0000000000
0.7529423237 0.0000000000 0.0000000000
0.8148466945 0.0000000000 0.0000000000
0.8713672161 0.0000000000 0.0000000000
0.9301108718 0.0000000000 0.0000000000
1.0000000000 0.0000000000 0.0000000000
0.0000000000 0.0021246888 0.0000000000
0.0021246888 0.0021246888 0.0000000000
0.0043914421 0.0021246888 0.0000000000
0.0074990317 0.0021246888 0.0000000000
0.0122864870 0.0021246888 0.0000000000
0.0176419523 0.0021246888 0.0000000000
0.0241576303 0.0021246888 0.0000000000
0.0331047624 0.0021246888 0.0000000000
0.0423114114 0.0021246888 0.0000000000
0.0528606549 0.0021246888 0.0000000000
0.0648032799 0.0021246888 0.0000000000
0.0802198276 0.0021246888 0.0000000000
0.0953074843 0.0021246888 0.0000000000
0.1119324341 0.0021246888 0.0000000000
0.1328683347 0.0021246888 0.0000000000
0.1529261619 0.0021246888 0.0000000000
0.1746473908 0.0021246888 0.0000000000
0.1980693042 0.0021246888 0.0000000000
0.2269658893 0.0021246888 0.0000000000
0.2541521788 0.0021246888 0.0000000000
0.2831487954 0.0021246888 0.0000000000
0.3185468316 0.0021246888 0.0000000000
0.3515326977 0.0021246888 0.0000000000
0.3864295185 0.0021246888 0.0000000000
0.4232677519 0.0021246888 0.0000000000
0.4677838385 0.0021246888 0.0000000000
0.5088814497 0.0021246888 0.0000000000
0.5520114899 0.0021246888 0.0000000000
0.6038274169 0.0021246888 0.0000000000
0.6514056921 0.0021246888 0.0000000000
0.7011020184 0.0021246888 0.0000000000
0.7529423237 0.0021246888 0.0000000000
0.8148466945 0.0021246888 0.0000000000
0.8713672161 0.0021246888 0.0000000000
0.9301108718 0.0021246888 0.0000000000
1.0000000000 0.0021246888 0.0000000000
0.0000000000 0.0043914421 0.0000000000
0.0021246888 0.0043914421 0.0000000000
0.0043914421 0.0043914421 0.0000000000
0.0074990317 0.0043914421 0.0000000000
0.0122864870 0.0043914421 0.0000000000
0.0176419523 0.0043914421 0.0000000000
0.0241576303 0.0043914421 0.0000000000
0.0331047624 0.0043914421 0.0000000000
0.0423114114 0.0043914421 0.0000000000
0.0528606549 0.0043914421 0.0000000000
0.0648032799 0.0043914421 0.0000000000
0.0802198276 0.0043914421 0.0000000000
0.0953074843 0.0043914421 0.0000000000
0.1119324341 0.0043914421 0.0000000000
0.1328683347 0.0043914421 0.0000000000
0.1529261619 0.0043914421 0.0000000000
0.1746473908 0.0043914421 0.0000000000
0.1980693042 0.0043914421 0.0000000000
0.2269658893 0.0043914421 0.0000000000
0.2541521788 0.0043914421 0.0000000000
0.2831487954 0.0043914421 0.0000000000
0.3185468316 0.0043914421 0.0000000000
0.3515326977 0.0043914421 0.0000000000
0.3864295185 0.0043914421 0.0000000000
0.4232677519 0.0043914421 0.0000000000
0.4677838385 0.0043914421 0.0000000000
0.5088814497 0.0043914421 0.0000000000
0.5520114899 0.0043914421 0.0000000000
0.6038274169 0.0043914421 0.0000000000
0.6514056921 0.0043914421 0.0000000000
0.7011020184 0.0043914421 0.0000000000
0.7529423237 0.0043914421 0.0000000000
0.8148466945 0.0043914421 0.0000000000
0.8713672161 0.0043914421 0.0000000000
0.9301108718 0.0043914421 0.0000000000
1.0000000000 0.0043914421 0.0000000000
0.0000000000 0.0074990317 0.0000000000
0.0021246888 0.0074990317 0.0000000000
0.0043914421 0.0074990317 0.0000000000
0.0074990317 0.0074990317 0.0000000000
0.0122864870 0.0074990317 0.0000000000
0.0176419523 0.0074990317 0.0000000000
0.0241576303 0.0074990317 0.0000000000
0.0331047624 0.0074990317 0.0000000000
0.0423114114 0.0074990317 0.0000000000
0.0528606549 0.0074990317 0.0000000000
0.0648032799 0.0074990317 0.0000000000
0.0802198276 0.0074990317 0.0000000000
0.0953074843 0.0074990317 0.0000000000
0.1119324341 0.0074990317 0.0000000000
0.1328683347 0.0074990317 0.0000000000
0.1529261619 0.0074990317 0.0000000000
0.1746473908 0.0074990317 0.0000000000
0.1980693042 0.0074990317 0.0000000000
0.2269658893 0.0074990317 0.0000000000
0.2541521788 0.0074990317 0.0000000000
0.2831487954 0.0074990317 0.0000000000
0.3185468316 0.0074990317 0.0000000000
0.3515326977 0.0074990317 0.0000000000
0.3864295185 0.0074990317 0.0000000000
0.4232677519 0.0074990317 0.0000000000
0.4677838385 0.0074990317 0.0000000000
0.5088814497 0.0074990317 0.0000000000
0.5520114899 0.0074990317 0.0000000000
0.6038274169 0.0074990317 0.0000000000
0.6514056921 0.0074990317 0.0000000000
0.7011020184 0.0074990317 0.0000000000
0.7529423237 0.0074990317 0.0000000000
0.8148466945 0.0074990317 0.0000000000
0.8713672161 0.0074990317 0.0000000000
0.9301108718 0.0074990317 0.0000000000
1.0000000000 0.0074990317 0.0000000000
0.0000000000 0.0122864870 0.0000000000
0.0021246888 0.0122864870 0.0000000000
0.0043914421 0.0122864870 0.0000000000
0.0074990317 0.0122864870 0.0000000000
0.0122864870 0.0122864870 0.0000000000
0.0176419523 0.0122864870 0.0000000000
0.0241576303 0.0122864870 0.0000000000
0.0331047624 0.0122864870 0.0000000000
0.0423114114 0.0122864870 0.0000000000
0.0528606549 0.0122864870 0.0000000000
0.0648032799 0.0122864870 0.0000000000
0.0802198276 0.0122864870 0.0000000000
0.0953074843 0.0122864870 0.0000000000
0.1119324341 0.0122864870 0.0000000000
0.1328683347 0.0122864870 0.0000000000
0.1529261619 0.0122864870 0.0000000000
0.1746473908 0.0122864870 0.0000000000
0.1980693042 0.0122864870 0.0000000000
0.2269658893 0.0122864870 0.0000000000
0.2541521788 0.0122864870 0.0000000000
0.2831487954 0.0122864870 0.0000000000
0.3185468316 0.0122864870 0.0000000000
0.3515326977 0.0122864870 0.0000000000
0.3864295185 0.0122864870 0.0000000000
0.4232677519 0.0122864870 0.0000000000
0.4677838385 0.0122864870 0.0000000000
0.5088814497 0.0122864870 0.0000000000
0.5520114899 0.0122864870 0.0000000000
0.6038274169 0.0122864870 0.0000000000
0.6514056921 0.0122864870 0.0000000000
0.7011020184 0.0122864870 0.0000000000
0.7529423237 0.0122864870 0.0000000000
0.8148466945 0.0122864870 0.0000000000
0.8713672161 0.0122864870 0.0000000000
0.9301108718 0.0122864870 0.0000000000
1.0000000000 0.0122864870 0.0000000000
0.0000000000 0.0176419523 0.0000000000
0.0021246888 0.0176419523 0.0000000000
0.0043914421 0.0176419523 0.0000000000
0.0074990317 0.0176419523 0.0000000000
0.0122864870 0.0176419523 0.0000000000
0.0176419523 0.0176419523 0.0000000000
0.0241576303 0.0176419523 0.0000000000
0.0331047624 0.0176419523 0.0000000000
0.0423114114 0.0176419523 0.0000000000
0.0528606549 0.0176419523 0.0000000000
0.0648032799 0.0176419523 0.0000000000
0.0802198276 0.0176419523 0.0000000000
0.0953074843 0.0176419523 0.0000000000
0.1119324341 0.0176419523 0.0000000000
0.1328683347 0.0176419523 0.0000000000
0.1529261619 0.0176419523 0.0000000000
0.1746473908 0.0176419523 0.0000000000
0.1980693042 0.0176419523 0.0000000000
0.2269658893 0.0176419523 0.0000000000
0.2541521788 0.0176419523 0.0000000000
0.2831487954 0.0176419523 0.0000000000
0.3185468316 0.0176419523 0.0000000000
0.3515326977 0.0176419523 0.0000000000
0.3864295185 0.0176419523 0.0000000000
0.4232677519 0.0176419523 0.0000000000
0.4677838385 0.0176419523 0.0000000000
0.5088814497 0.0176419523 0.0000000000
0.5520114899 0.0176419523 0.0000000000
0.6038274169 0.0176419523 0.0000000000
0.6514056921 0.0176419523 0.0000000000
0.7011020184 0.0176419523 0.0000000000
0.7529423237 0.0176419523 0.0000000000
0.8148466945 0.0176419523 0.0000000000
0.8713672161 0.0176419523 0.0000000000
0.9301108718 0.0176419523 0.0000000000
1.0000000000 0.0176419523 0.0000000000
0.0000000000 0.0241576303 0.0000000000
0.0021246888 0.0241576303 0.0000000000
0.0043914421 0.0241576303 0.0000000000
0.0074990317 0.0241576303 0.0000000000
0.0122864870 0.0241576303 0.0000000000
0.0176419523 0.0241576303 0.0000000000
0.0241576303 0.0241576303 0.0000000000
0.0331047624 0.0241576303 0.0000000000
0.0423114114 0.0241576303 0.0000000000
0.0528606549 0.0241576303 0.0000000000
0.0648032799 0.0241576303 0.0000000000
0.0802198276 0.0241576303 0.0000000000
0.0953074843 0.0241576303 0.0000000000
0.1119324341 0.0241576303 0.0000000000
0.1328683347 0.0241576303 0.0000000000
0.1529261619 0.0241576303 0.0000000000
0.1746473908 0.0241576303 0.0000000000
0.1980693042 0.0241576303 0.0000000000
0.2269658893 0.0241576303 0.0000000000
0.2541521788 0.0241576303 0.0000000000
0.2831487954 0.0241576303 0.0000000000
0.3185468316 0.0241576303 0.0000000000
0.3515326977 0.0241576303 0.0000000000
0.3864295185 0.0241576303 0.0000000000
0.4232677519 0.0241576303 0.0000000000
0.4677838385 0.0241576303 0.0000000000
0.5088814497 0.0241576303 0.0000000000
0.5520114899 0.0241576303 0.0000000000
0.6038274169 0.0241576303 0.0000000000
0.6514056921 0.0241576303 0.0000000000
0.7011020184 0.0241576303 0.0000000000
0.7529423237 0.0241576303 0.0000000000
0.8148466945 0.0241576303 0.0000000000
0.8713672161 0.0241576303 0.0000000000
0.9301108718 0.0241576303 0.0000000000
1.0000000000 0.0241576303 0.0000000000
0.0000000000 0.0331047624 0.0000000000
0.0021246888 0.0331047624 0.0000000000
0.0043914421 0.0331047624 0.0000000000
0.0074990317 0.0331047624 0.0000000000
0.0122864870 0.0331047624 0.0000000000
0.0176419523 0.0331047624 0.0000000000
0.0241576303 0.0331047624 0.0000000000
0.0331047624 0.0331047624 0.0000000000
0.0423114114 0.0331047624 0.0000000000
0.0528606549 0.0331047624 0.0000000000
0.0648032799 0.0331047624 0.0000000000
0.0802198276 0.0331047624 0.0000000000
0.0953074843 0.0331047624 0.0000000000
0.1119324341 0.0331047624 0.0000000000
0.1328683347 0.0331047624 0.0000000000
0.1529261619 0.0331047624 0.0000000000
0.1746473908 0.0331047624 0.0000000000
0.1980693042 0.0331047624 0.0000000000
0.2269658893 0.0331047624 0.0000000000
0.2541521788 0.0331047624 0.0000000000
0.2831487954 0.0331047624 0.0000000000
0.3185468316 0.0331047624 0.0000000000
0.3515326977 0.0331047624 0.0000000000
0.3864295185 0.0331047624 0.0000000000
0.4232677519 0.0331047624 0.0000000000
0.4677838385 0.0331047624 0.0000000000
0.5088814497 0.0331047624 0.0000000000
0.5520114899 0.0331047624 0.0000000000
0.6038274169 0.0331047624 0.0000000000
0.6514056921 0.0331047624 0.0000000000
0.7011020184 0.0331047624 0.0000000000
0.7529423237 0.0331047624 0.0000000000
0.8148466945 0.0331047624 0.0000000000
0.8713672161 0.0331047624 0.0000000000
0.9301108718 0.0331047624 0.0000000000
1.0000000000 0.0331047624 0.0000000000
0.0000000000 0.0423114114 0.0000000000
0.0021246888 0.0423114114 0.0000000000
0.0043914421 0.0423114114 0.0000000000
0.0074990317 0.0423114114 0.0000000000
0.0122864870 0.0423114114 0.0000000000
0.0176419523 0.0423114114 0.0000000000
0.0241576303 0.0423114114 0.0000000000
0.0331047624 0.0423114114 0.0000000000
0.0423114114 0.0423114114 0.0000000000
0.0528606549 0.0423114114 0.0000000000
0.0648032799 0.0423114114 0.0000000000
0.0802198276 0.0423114114 0.0000000000
0.0953074843 0.0423114114 0.0000000000
0.1119324341 0.0423114114 0.0000000000
0.1328683347 0.0423114114 0.0000000000
0.1529261619 0.0423114114 0.0000000000
0.1746473908 0.0423114114 0.0000000000
0.1980693042 0.0423114114 0.0000000000
0.2269658893 0.0423114114 0.0000000000
0.2541521788 0.0423114114 0.0000000000
0.2831487954 0.0423114114 0.0000000000
0.3185468316 0.0423114114 0.0000000000
0.3515326977 0.0423114114 0.0000000000
0.3864295185 0.0423114114 0.0000000000
0.4232677519 0.0423114114 0.0000000000
0.4677838385 0.0423114114 0.0000000000
0.5088814497 0.0423114114 0.0000000000
0.5520114899 0.0423114114 0.0000000000
0.6038274169 0.0423114114 0.0000000000
0.6514056921 0.0423114114 0.0000000000
0.7011020184 0.0423114114 0.0000000000
0.7529423237 0.0423114114 0.0000000000
0.8148466945 0.0423114114 0.0000000000
0.8713672161 0.0423114114 0.0000000000
0.9301108718 0.0423114114 0.0000000000
1.0000000000 0.0423114114 0.0000000000
0.0000000000 0.0528606549 0.0000000000
0.0021246888 0.0528606549 0.0000000000
0.0043914421 0.0528606549 0.0000000000
0.0074990317 0.0528606549 0.0000000000
0.0122864870 0.0528606549 0.0000000000
0.0176419523 0.0528606549 0.0000000000
0.0241576303 0.0528606549 0.0000000000
0.0331047624 0.0528606549 0.0000000000
0.0423114114 0.0528606549 0.0000000000
0.0528606549 0.0528606549 0.0000000000
0.0648032799 0.0528606549 0.0000000000
0.0802198276 0.0528606549 0.0000000000
0.0953074843 0.0528606549 0.0000000000
0.1119324341 0.0528606549 0.0000000000
0.1328683347 0.0528606549 0.0000000000
0.1529261619 0.0528606549 0.0000000000
0.1746473908 0.0528606549 0.0000000000
0.1980693042 0.0528606549 0.0000000000
0.2269658893 0.0528606549 0.0000000000
0.2541521788 0.0528606549 0.0000000000
0.2831487954 0.0528606549 0.0000000000
0.3185468316 0.0528606549 0.0000000000
0.3515326977 0.0528606549 0.0000000000
0.3864295185 0.0528606549 0.0000000000
0.4232677519 0.0528606549 0.0000000000
0.4677838385 0.0528606549 0.0000000000
0.5088814497 0.0528606549 0.0000000000
0.5520114899 0.0528606549 0.0000000000
0.6038274169 0.0528606549 0.0000000000
0.6514056921 0.0528606549 0.0000000000
0.7011020184 0.0528606549 0.0000000000
0.7529423237 0.0528606549 0.0000000000
0.8148466945 0.0528606549 0.0000000000
0.8713672161 0.0528606549 0.0000000000
0.9301108718 0.0528606549 0.0000000000
1.0000000000 0.0528606549 0.0000000000
0.0000000000 0.0648032799 0.0000000000
0.0021246888 0.0648032799 0.0000000000
0.0043914421 0.0648032799 0.0000000000
0.0074990317 0.0648032799 0.0000000000
0.0122864870 0.0648032799 0.0000000000
0.0176419523 0.0648032799 0.0000000000
0.0241576303 0.0648032799 0.0000000000
0.0331047624 0.0648032799 0.0000000000
0.0423114114 0.0648032799 0.0000000000
0.0528606549 0.0648032799 0.0000000000
0.0648032799 0.0648032799 0.0000000000
0.0802198276 0.0648032799 0.0000000000
0.0953074843 0.0648032799 0.0000000000
0.1119324341 0.0648032799 0.0000000000
0.1328683347 0.0648032799 0.0000000000
0.1529261619 0.0648032799 0.0000000000
0.1746473908 0.0648032799 0.0000000000
0.1980693042 0.0648032799 0.0000000000
0.2269658893 0.0648032799 0.0000000000
0.2541521788 0.0648032799 0.0000000000
0.2831487954 0.0648032799 0.0000000000
0.3185468316 0.0648032799 0.0000000000
0.3515326977 0.0648032799 0.0000000000
0.3864295185 0.0648032799 0.0000000000
0.4232677519 0.0648032799 0.0000000000
0.4677838385 0.0648032799 0.0000000000
0.5088814497 0.0648032799 0.0000000000
0.5520114899 0.0648032799 0.0000000000
0.6038274169 0.0648032799 0.0000000000
0.6514056921 0.0648032799 0.0000000000
0.7011020184 0.0648032799 0.0000000000
0.7529423237 0.0648032799 0.0000000000
0.8148466945 0.0648032799 0.0000000000
0.8713672161 0.0648032799 0.0000000000
0.9301108718 0.0648032799 0.0000000000
1.0000000000 0.0648032799 0.0000000000
0.0000000000 0.0802198276 0.0000000000
0.0021246888 0.0802198276 0.0000000000
0.0043914421 0.0802198276 0.0000000000
0.0074990317 0.0802198276 0.0000000000
0.0122864870 0.0802198276 0.0000000000
0.0176419523 0.0802198276 0.0000000000
0.0241576303 0.0802198276 0.0000000000
0.0331047624 0.0802198276 0.0000000000
0.0423114114 0.0802198276 0.0000000000
0.0528606549 0.0802198276 0.0000000000
0.0648032799 0.0802198276 0.0000000000
0.0802198276 0.0802198276 0.0000000000
0.0953074843 0.0802198276 0.0000000000
0.1119324341 0.0802198276 0.0000000000
0.1328683347 0.0802198276 0.0000000000
0.1529261619 0.0802198276 0.0000000000
0.1746473908 0.0802198276 0.0000000000
0.1980693042 0.0802198276 0.0000000000
0.2269658893 0.0802198276 0.0000000000
0.2541521788 0.0802198276 0.0000000000
0.2831487954 0.0802198276 0.0000000000
0.3185468316 0.0802198276 0.0000000000
0.3515326977 0.0802198276 0.0000000000
0.3864295185 0.0802198276 0.0000000000
0.4232677519 0.0802198276 0.0000000000
0.4677838385 0.0802198276 0.0000000000
0.5088814497 0.0802198276 0.0000000000
0.5520114899 0.0802198276 0.0000000000
0.6038274169 0.0802198276 0.0000000000
0.6514056921 0.0802198276 0.0000000000
0.7011020184 0.0802198276 0.0000000000
0.7529423237 0.0802198276 0.0000000000
0.8148466945 0.0802198276 0.0000000000
0.8713672161 0.0802198276 0.0000000000
0.9301108718 0.0802198276 0.0000000000
1.0000000000 0.0802198276 0.0000000000
0.0000000000 0.0953074843 0.0000000000
0.0021246888 0.0953074843 0.0000000000
0.0043914421 0.0953074843 0.0000000000
0.0074990317 0.0953074843 0.0000000000
0.0122864870 0.0953074843 0.0000000000
0.0176419523 0.0953074843 0.0000000000
0.0241576303 0.0953074843 0.0000000000
0.0331047624 0.0953074843 0.0000000000
0.0423114114 0.0953074843 0.0000000000
0.0528606549 0.0953074843 0.0000000000
0.0648032799 0.0953074843 0.0000000000
0.0802198276 0.0953074843 0.0000000000
0.0953074843 0.0953074843 0.0000000000
0.1119324341 0.0953074843 0.0000000000
0.1328683347 0.0953074843 0.0000000000
0.1529261619 0.0953074843 0.0000000000
0.1746473908 0.0953074843 0.0000000000
0.1980693042 0.0953074843 0.0000000000
0.2269658893 0.0953074843 0.0000000000
0.2541521788 0.0953074843 0.0000000000
0.2831487954 0.0953074843 0.0000000000
0.3185468316 0.0953074843 0.0000000000
0.3515326977 0.0953074843 0.0000000000
0.3864295185 0.0953074843 0.0000000000
0.4232677519 0.0953074843 0.0000000000
0.4677838385 0.0953074843 0.0000000000
0.5088814497 0.0953074843 0.0000000000
0.5520114899 0.0953074843 0.0000000000
0.6038274169 0.0953074843 0.0000000000
0.6514056921 0.0953074843 0.0000000000
0.7011020184 0.0953074843 0.0000000000
0.7529423237 0.0953074843 0.0000000000
0.8148466945 0.0953074843 0.0000000000
0.8713672161 0.0953074843 0.0000000000
0.9301108718 0.0953074843 0.0000000000
1.0000000000 0.0953074843 0.0000000000
0.0000000000 0.1119324341 0.0000000000
0.0021246888 0.1119324341 0.0000000000
0.0043914421 0.1119324341 0.0000000000
0.0074990317 0.1119324341 0.0000000000
0.0122864870 0.1119324341 0.0000000000
0.0176419523 0.1119324341 0.0000000000
0.0241576303 0.1119324341 0.0000000000
0.0331047624 0.1119324341 0.0000000000
0.0423114114 0.1119324341 0.0000000000
0.0528606549 0.1119324341 0.0000000000
0.0648032799 0.1119324341 0.0000000000
0.0802198276 0.1119324341 0.0000000000
0.0953074843 0.1119324341 0.0000000000
0.1119324341 0.1119324341 0.0000000000
0.1328683347 0.1119324341 0.0000000000
0.1529261619 0.1119324341 0.0000000000
0.1746473908 0.1119324341 0.0000000000
0.1980693042 0.1119324341 0.0000000000
0.2269658893 0.1119324341 0.0000000000
0.2541521788 0.1119324341 0.0000000000
0.2831487954 0.1119324341 0.0000000000
0.3185468316 0.1119324341 0.0000000000
0.3515326977 0.1119324341 0.0000000000
0.3864295185 0.1119324341 0.0000000000
0.4232677519 0.1119324341 0.0000000000
0.4677838385 0.1119324341 0.0000000000
0.5088814497 0.1119324341 0.0000000000
0.5520114899 0.1119324341 0.0000000000
0.6038274169 0.1119324341 0.0000000000
0.6514056921 0.1119324341 0.0000000000
0.7011020184 0.1119324341 0.0000000000
0.7529423237 0.1119324341 0.0000000000
0.8148466945 0.1119324341 0.0000000000
0.8713672161 0.1119324341 0.0000000000
0.9301108718 0.1119324341 0.0000000000
1.0000000000 0.1119324341 0.0000000000
0.0000000000 0.1328683347 0.0000000000
0.0021246888 0.1328683347 0.0000000000
0.0043914421 0.1328683347 0.0000000000
0.0074990317 0.1328683347 0.0000000000
0.0122864870 0.1328683347 0.0000000000
0.0176419523 0.1328683347 0.0000000000
0.0241576303 0.1328683347 0.0000000000
0.0331047624 0.1328683347 0.0000000000
0.0423114114 0.1328683347 0.0000000000
0.0528606549 0.1328683347 0.0000000000
0.0648032799 0.1328683347 0.0000000000
0.0802198276 0.1328683347 0.0000000000
0.0953074843 0.1328683347 0.0000000000
0.1119324341 0.1328683347 0.0000000000
0.1328683347 0.1328683347 0.0000000000
0.1529261619 0.1328683347 0.0000000000
0.1746473908 0.1328683347 0.0000000000
0.1980693042 0.1328683347 0.0000000000
0.2269658893 0.1328683347 0.0000000000
0.2541521788 0.1328683347 0.0000000000
0.2831487954 0.1328683347 0.0000000000
0.3185468316 0.1328683347 0.0000000000
0.3515326977 0.1328683347 0.0000000000
0.3864295185 0.1328683347 0.0000000000
0.4232677519 0.1328683347 0.0000000000
0.4677838385 0.1328683347 0.0000000000
0.5088814497 0.1328683347 0.0000000000
0.5520114899 0.1328683347 0.0000000000
0.6038274169 0.1328683347 0.0000000000
0.6514056921 0.1328683347 0.0000000000
0.7011020184 0.1328683347 0.0000000000
0.7529423237 0.1328683347 0.0000000000
0.8148466945 0.1328683347 0.0000000000
0.8713672161 0.1328683347 0.0000000000
0.9301108718 0.1328683347 0.0000000000
1.0000000000 0.1328683347 0.0000000000
0.0000000000 0.1529261619 0.0000000000
0.0021246888 0.1529261619 0.0000000000
0.0043914421 0.1529261619 0.0000000000
0.0074990317 0.1529261619 0.0000000000
0.0122864870 0.1529261619 0.0000000000
0.0176419523 0.1529261619 0.0000000000
0.0241576303 0.1529261619 0.0000000000
0.0331047624 0.1529261619 0.0000000000
0.0423114114 0.1529261619 0.0000000000
0.0528606549 0.1529261619 0.0000000000
0.0648032799 0.1529261619 0.0000000000
0.0802198276 0.1529261619 0.0000000000
0.0953074843 0.1529261619 0.0000000000
0.1119324341 0.1529261619 0.0000000000
0.1328683347 0.1529261619 0.0000000000
0.1529261619 0.1529261619 0.0000000000
0.1746473908 0.1529261619 0.0000000000
0.1980693042 0.1529261619 0.0000000000
0.2269658893 0.1529261619 0.0000000000
0.2541521788 0.1529261619 0.0000000000
0.2831487954 0.1529261619 0.0000000000
0.3185468316 0.1529261619 0.0000000000
0.3515326977 0.1529261619 0.0000000000
0.3864295185 0.1529261619 0.0000000000
0.4232677519 0.1529261619 0.0000000000
0.4677838385 0.1529261619 0.0000000000
0.5088814497 0.1529261619 0.0000000000
0.5520114899 0.1529261619 0.0000000000
0.6038274169 0.1529261619 0.0000000000
0.6514056921 0.1529261619 0.0000000000
0.7011020184 0.1529261619 0.0000000000
0.7529423237 0.1529261619 0.0000000000
0.8148466945 0.1529261619 0.0000000000
0.8713672161 0.1529261619 0.0000000000
0.9301108718 0.1529261619 0.0000000000
1.0000000000 0.1529261619 0.0000000000
0.0000000000 0.1746473908 0.0000000000
0.0021246888 0.1746473908 0.0000000000
0.0043914421 0.1746473908 0.0000000000
0.0074990317 0.1746473908 0.0000000000
0.0122864870 0.1746473908 0.0000000000
0.0176419523 0.1746473908 0.0000000000
0.0241576303 0.1746473908 0.0000000000
0.0331047624 0.1746473908 0.0000000000
0.0423114114 0.1746473908 0.0000000000
0.0528606549 0.1746473908 0.0000000000
0.0648032799 0.1746473908 0.0000000000
0.0802198276 0.1746473908 0.0000000000
0.0953074843 0.1746473908 0.0000000000
0.1119324341 0.1746473908 0.0000000000
0.1328683347 0.1746473908 0.0000000000
0.1529261619 0.1746473908 0.0000000000
0.1746473908 0.1746473908 0.0000000000
0.1980693042 0.1746473908 0.0000000000
0.2269658893 0.1746473908 0.0000000000
0.2541521788 0.1746473908 0.0000000000
0.2831487954 0.1746473908 0.0000000000
0.3185468316 0.1746473908 0.0000000000
0.3515326977 0.1746473908 0.0000000000
0.3864295185 0.1746473908 0.0000000000
0.4232677519 0.1746473908 0.0000000000
0.4677838385 0.1746473908 0.0000000000
0.5088814497 0.1746473908 0.0000000000
0.5520114899 0.1746473908 0.0000000000
0.6038274169 0.1746473908 0.0000000000
0.6514056921 0.1746473908 0.0000000000
0.7011020184 0.1746473908 0.0000000000
0.7529423237 0.1746473908 0.0000000000
0.8148466945 0.1746473908 0.0000000000
0.8713672161 0.1746473908 0.0000000000
0.9301108718 0.1746473908 0.0000000000
1.0000000000 0.1746473908 0.0000000000
0.0000000000 0.1980693042 0.0000000000
0.0021246888 0.1980693042 0.0000000000
0.0043914421 0.1980693042 0.0000000000
