HALD36.cube
LUT_3D_SIZE 6
0.0000000000 0.0000000000 0.0000000000
0.0331047624 0.0000000000 0.0000000000
0.1328683347 0.0000000000 0.0000000000
0.3185468316 0.0000000000 0.0000000000
0.6038274169 0.0000000000 0.0000000000
1.0000000000 0.0000000000 0.0000000000
0.0000000000 0.0331047624 0.0000000000
0.0331047624 0.0331047624 0.0000000000
0.1328683347 0.0331047624 0.0000000000
0.3185468316 0.0331047624 0.0000000000
0.6038274169 0.0331047624 0.0000000000
1.0000000000 0.0331047624 0.0000000000
0.0000000000 0.1328683347 0.0000000000
0.0331047624 0.1328683347 0.0000000000
0.1328683347 0.1328683347 0.0000000000
0.3185468316 0.1328683347 0.0000000000
0.6038274169 0.1328683347 0.0000000000
1.0000000000 0.1328683347 0.0000000000
0.0000000000 0.3185468316 0.0000000000
0.0331047624 0.3185468316 0.0000000000
0.1328683347 0.3185468316 0.0000000000
0.3185468316 0.3185468316 0.0000000000
0.6038274169 0.3185468316 0.0000000000
1.0000000000 0.3185468316 0.0000000000
0.0000000000 0.6038274169 0.0000000000
0.0331047624 0.6038274169 0.0000000000
0.1328683347 0.6038274169 0.0000000000
0.3185468316 0.6038274169 0.0000000000
0.6038274169 0.6038274169 0.0000000000
1.0000000000 0.6038274169 0.0000000000
0.0000000000 1.0000000000 0.0000000000
0.0331047624 1.0000000000 0.0000000000
0.1328683347 1.0000000000 0.0000000000
0.3185468316 1.0000000000 0.0000000000
0.6038274169 1.0000000000 0.0000000000
1.0000000000 1.0000000000 0.0000000000
0.0000000000 0.0000000000 0.0331047624
0.0331047624 0.0000000000 0.0331047624
0.1328683347 0.0000000000 0.0331047624
0.3185468316 0.0000000000 0.0331047624
0.6038274169 0.0000000000 0.0331047624
1.0000000000 0.0000000000 0.0331047624
0.0000000000 0.0331047624 0.0331047624
0.0331047624 0.0331047624 0.0331047624
0.1328683347 0.0331047624 0.0331047624
0.3185468316 0.0331047624 0.0331047624
0.6038274169 0.0331047624 0.0331047624
1.0000000000 0.0331047624 0.0331047624
0.0000000000 0.1328683347 0.0331047624
0.0331047624 0.1328683347 0.0331047624
0.1328683347 0.1328683347 0.0331047624
0.3185468316 0.1328683347 0.0331047624
0.6038274169 0.1328683347 0.0331047624
1.0000000000 0.1328683347 0.0331047624
0.0000000000 0.3185468316 0.0331047624
0.0331047624 0.3185468316 0.0331047624
0.1328683347 0.3185468316 0.0331047624
0.3185468316 0.3185468316 0.0331047624
0.6038274169 0.3185468316 0.0331047624
1.0000000000 0.3185468316 0.0331047624
0.0000000000 0.6038274169 0.0331047624
0.0331047624 0.6038274169 0.0331047624
0.1328683347 0.6038274169 0.0331047624
0.3185468316 0.6038274169 0.0331047624
0.6038274169 0.6038274169 0.0331047624
1.0000000000 0.6038274169 0.0331047624
0.0000000000 1.0000000000 0.0331047624
0.0331047624 1.0000000000 0.0331047624
0.1328683347 1.0000000000 0.0331047624
0.3185468316 1.0000000000 0.0331047624
0.6038274169 1.0000000000 0.0331047624
1.0000000000 1.0000000000 0.0331047624
0.0000000000 0.0000000000 0.1328683347
0.0331047624 0.0000000000 0.1328683347
0.1328683347 0.0000000000 0.1328683347
0.3185468316 0.0000000000 0.1328683347
0.6038274169 0.0000000000 0.1328683347
1.0000000000 0.0000000000 0.1328683347
0.0000000000 0.0331047624 0.1328683347
0.0331047624 0.0331047624 0.1328683347
0.1328683347 0.0331047624 0.1328683347
0.3185468316 0.0331047624 0.1328683347
0.6038274169 0.0331047624 0.1328683347
1.0000000000 0.0331047624 0.1328683347
0.0000000000 0.1328683347 0.1328683347
0.0331047624 0.1328683347 0.1328683347
0.1328683347 0.1328683347 0.1328683347
0.3185468316 0.1328683347 0.1328683347
0.6038274169 0.1328683347 0.1328683347
1.0000000000 0.1328683347 0.1328683347
0.0000000000 0.3185468316 0.1328683347
0.0331047624 0.3185468316 0.1328683347
0.1328683347 0.3185468316 0.1328683347
0.3185468316 0.3185468316 0.1328683347
0.6038274169 0.3185468316 0.1328683347
1.0000000000 0.3185468316 0.1328683347
0.0000000000 0.6038274169 0.1328683347
0.0331047624 0.6038274169 0.1328683347
0.1328683347 0.6038274169 0.1328683347
0.3185468316 0.6038274169 0.1328683347
0.6038274169 0.6038274169 0.1328683347
1.0000000000 0.6038274169 0.1328683347
0.0000000000 1.0000000000 0.1328683347
0.0331047624 1.0000000000 0.1328683347
0.1328683347 1.0000000000 0.1328683347
0.3185468316 1.0000000000 0.1328683347
0.6038274169 1.0000000000 0.1328683347
1.0000000000 1.0000000000 0.1328683347
0.0000000000 0.0000000000 0.3185468316
0.0331047624 0.0000000000 0.3185468316
0.1328683347 0.0000000000 0.3185468316
0.3185468316 0.0000000000 0.3185468316
0.6038274169 0.0000000000 0.3185468316
1.0000000000 0.0000000000 0.3185468316
0.0000000000 0.0331047624 0.3185468316
0.0331047624 0.0331047624 0.3185468316
0.1328683347 0.0331047624 0.3185468316
0.3185468316 0.0331047624 0.3185468316
0.6038274169 0.0331047624 0.3185468316
1.0000000000 0.0331047624 0.3185468316
0.0000000000 0.1328683347 0.3185468316
0.0331047624 0.1328683347 0.3185468316
0.1328683347 0.1328683347 0.3185468316
0.3185468316 0.1328683347 0.3185468316
0.6038274169 0.1328683347 0.3185468316
1.0000000000 0.1328683347 0.3185468316
0.0000000000 0.3185468316 0.3185468316
0.0331047624 0.3185468316 0.3185468316
0.1328683347 0.3185468316 0.3185468316
0.3185468316 0.3185468316 0.3185468316
0.6038274169 0.3185468316 0.3185468316
1.0000000000 0.3185468316 0.3185468316
0.0000000000 0.6038274169 0.3185468316
0.0331047624 0.6038274169 0.3185468316
0.1328683347 0.6038274169 0.3185468316
0.3185468316 0.6038274169 0.3185468316
0.6038274169 0.6038274169 0.3185468316
1.0000000000 0.6038274169 0.3185468316
0.0000000000 1.0000000000 0.3185468316
0.0331047624 1.0000000000 0.3185468316
0.1328683347 1.0000000000 0.3185468316
0.3185468316 1.0000000000 0.3185468316
0.6038274169 1.0000000000 0.3185468316
1.0000000000 1.0000000000 0.3185468316
0.0000000000 0.0000000000 0.6038274169
0.0331047624 0.0000000000 0.6038274169
0.1328683347 0.0000000000 0.6038274169
0.3185468316 0.0000000000 0.6038274169
0.6038274169 0.0000000000 0.6038274169
1.0000000000 0.0000000000 0.6038274169
0.0000000000 0.0331047624 0.6038274169
0.0331047624 0.0331047624 0.6038274169
0.1328683347 0.0331047624 0.6038274169
0.3185468316 0.0331047624 0.6038274169
0.6038274169 0.0331047624 0.6038274169
1.0000000000 0.0331047624 0.6038274169
0.0000000000 0.1328683347 0.6038274169
0.0331047624 0.1328683347 0.6038274169
0.1328683347 0.1328683347 0.6038274169
0.3185468316 0.1328683347 0.6038274169
0.6038274169 0.1328683347 0.6038274169
1.0000000000 0.1328683347 0.6038274169
0.0000000000 0.3185468316 0.6038274169
0.0331047624 0.3185468316 0.6038274169
0.1328683347 0.3185468316 0.6038274169
0.3185468316 0.3185468316 0.6038274169
0.6038274169 0.3185468316 0.6038274169
1.0000000000 0.3185468316 0.6038274169
0.0000000000 0.6038274169 0.6038274169
0.0331047624 0.6038274169 0.6038274169
0.1328683347 0.6038274169 0.6038274169
0.3185468316 0.6038274169 0.6038274169
0.6038274169 0.6038274169 0.6038274169
1.0000000000 0.6038274169 0.6038274169
0.0000000000 1.0000000000 0.6038274169
0.0331047624 1.0000000000 0.6038274169
0.1328683347 1.0000000000 0.6038274169
0.3185468316 1.0000000000 0.6038274169
0.6038274169 1.0000000000 0.6038274169
1.0000000000 1.0000000000 0.6038274169
0.0000000000 0.0000000000 1.0000000000
0.0331047624 0.0000000000 1.0000000000
0.1328683347 0.0000000000 1.0000000000
0.3185468316 0.0000000000 1.0000000000
0.6038274169 0.0000000000 1.0000000000
1.0000000000 0.0000000000 1.0000000000
0.0000000000 0.0331047624 1.0000000000
0.0331047624 0.0331047624 1.0000000000
0.1328683347 0.0331047624 1.0000000000
0.3185468316 0.0331047624 1.0000000000
0.6038274169 0.0331047624 1.0000000000
1.0000000000 0.0331047624 1.0000000000
0.0000000000 0.1328683347 1.0000000000
0.0331047624 0.1328683347 1.0000000000
0.1328683347 0.1328683347 1.0000000000
0.3185468316 0.1328683347 1.0000000000
0.6038274169 0.1328683347 1.0000000000
1.0000000000 0.1328683347 1.0000000000
0.0000000000 0.3185468316 1.0000000000
0.0331047624 0.3185468316 1.0000000000
0.1328683347 0.3185468316 1.0000000000
0.3185468316 0.3185468316 1.0000000000
0.6038274169 0.3185468316 1.0000000000
1.0000000000 0.3185468316 1.0000000000
0.0000000000 0.6038274169 1.0000000000
0.0331047624 0.6038274169 1.0000000000
0.1328683347 0.6038274169 1.0000000000
0.3185468316 0.6038274169 1.0000000000
0.6038274169 0.6038274169 1.0000000000
1.0000000000 0.6038274169 1.0000000000
0.0000000000 1.0000000000 1.0000000000
0.0331047624 1.0000000000 1.0000000000
0.1328683347 1.0000000000 1.0000000000
0.3185468316 1.0000000000 1.0000000000
0.6038274169 1.0000000000 1.0000000000
1.0000000000 1.0000000000 1.0000000000
