temp.cube
LUT_3D_SIZE 6
0.0000000000 0.0000000000 0.0000000000
0.5137254902 0.0000000000 0.0000000000
1.0000000000 0.0000000000 0.0000000000
1.0000000000 0.0000000000 0.0000000000
1.0000000000 0.0000000000 0.0000000000
1.0000000000 0.0000000000 0.0000000000
0.0000000000 0.3137254902 0.0000000000
0.2274509804 0.2274509804 0.0000000000
0.7450980392 0.1450980392 0.0000000000
1.0000000000 0.0588235294 0.0000000000
1.0000000000 0.0000000000 0.0000000000
1.0000000000 0.0000000000 0.0000000000
0.0000000000 0.6274509804 0.0000000000
0.0000000000 0.5411764706 0.0000000000
0.4588235294 0.4588235294 0.0000000000
0.9725490196 0.3725490196 0.0000000000
1.0000000000 0.2862745098 0.0000000000
1.0000000000 0.2039215686 0.0000000000
0.0000000000 0.9411764706 0.0000000000
0.0000000000 0.8549019608 0.0000000000
0.1725490196 0.7725490196 0.0000000000
0.6862745098 0.6862745098 0.0000000000
1.0000000000 0.6000000000 0.0000000000
1.0000000000 0.5176470588 0.0000000000
0.0000000000 1.0000000000 0.0000000000
0.0000000000 1.0000000000 0.0000000000
0.0000000000 1.0000000000 0.0000000000
0.4000000000 1.0000000000 0.0000000000
0.9137254902 0.9137254902 0.0000000000
1.0000000000 0.8313725490 0.0000000000
0.0000000000 1.0000000000 0.0000000000
0.0000000000 1.0000000000 0.0000000000
0.0000000000 1.0000000000 0.0000000000
0.1137254902 1.0000000000 0.0000000000
0.6313725490 1.0000000000 0.0000000000
1.0000000000 1.0000000000 0.0000000000
0.0000000000 0.0000000000 0.5725490196
0.4862745098 0.0000000000 0.4862745098
1.0000000000 0.0000000000 0.4000000000
1.0000000000 0.0000000000 0.3176470588
1.0000000000 0.0000000000 0.2313725490
1.0000000000 0.0000000000 0.1450980392
0.0000000000 0.2862745098 0.2862745098
0.2000000000 0.2000000000 0.2000000000
0.7137254902 0.1137254902 0.1137254902
1.0000000000 0.0313725490 0.0313725490
1.0000000000 0.0000000000 0.0000000000
1.0000000000 0.0000000000 0.0000000000
0.0000000000 0.6000000000 0.0000000000
0.0000000000 0.5137254902 0.0000000000
0.4274509804 0.4274509804 0.0000000000
0.9450980392 0.3450980392 0.0000000000
1.0000000000 0.2588235294 0.0000000000
1.0000000000 0.1725490196 0.0000000000
0.0000000000 0.9137254902 0.0000000000
0.0000000000 0.8274509804 0.0000000000
0.1411764706 0.7411764706 0.0000000000
0.6588235294 0.6588235294 0.0000000000
1.0000000000 0.5725490196 0.0000000000
1.0000000000 0.4862745098 0.0000000000
0.0000000000 1.0000000000 0.0000000000
0.0000000000 1.0000000000 0.0000000000
0.0000000000 1.0000000000 0.0000000000
0.3725490196 0.9725490196 0.0000000000
0.8862745098 0.8862745098 0.0000000000
1.0000000000 0.8000000000 0.0000000000
0.0000000000 1.0000000000 0.0000000000
0.0000000000 1.0000000000 0.0000000000
0.0000000000 1.0000000000 0.0000000000
0.0862745098 1.0000000000 0.0000000000
0.6000000000 1.0000000000 0.0000000000
1.0000000000 1.0000000000 0.0000000000
0.0000000000 0.0000000000 1.0000000000
0.4588235294 0.0000000000 1.0000000000
0.9725490196 0.0000000000 0.9725490196
1.0000000000 0.0000000000 0.8862745098
1.0000000000 0.0000000000 0.8039215686
1.0000000000 0.0000000000 0.7176470588
0.0000000000 0.2549019608 0.8549019608
0.1725490196 0.1725490196 0.7725490196
0.6862745098 0.0862745098 0.6862745098
1.0000000000 0.0000000000 0.6000000000
1.0000000000 0.0000000000 0.5176470588
1.0000000000 0.0000000000 0.4313725490
0.0000000000 0.5686274510 0.5686274510
0.0000000000 0.4862745098 0.4862745098
0.4000000000 0.4000000000 0.4000000000
0.9137254902 0.3137254902 0.3137254902
1.0000000000 0.2313725490 0.2313725490
1.0000000000 0.1450980392 0.1450980392
0.0000000000 0.8823529412 0.2823529412
0.0000000000 0.8000000000 0.2000000000
0.1137254902 0.7137254902 0.1137254902
0.6274509804 0.6274509804 0.0274509804
1.0000000000 0.5450980392 0.0000000000
1.0000000000 0.4588235294 0.0000000000
0.0000000000 1.0000000000 0.0000000000
0.0000000000 1.0000000000 0.0000000000
0.0000000000 1.0000000000 0.0000000000
0.3411764706 0.9411764706 0.0000000000
0.8588235294 0.8588235294 0.0000000000
1.0000000000 0.7725490196 0.0000000000
0.0000000000 1.0000000000 0.0000000000
0.0000000000 1.0000000000 0.0000000000
0.0000000000 1.0000000000 0.0000000000
0.0549019608 1.0000000000 0.0000000000
0.5725490196 1.0000000000 0.0000000000
1.0000000000 1.0000000000 0.0000000000
0.0000000000 0.0000000000 1.0000000000
0.4274509804 0.0000000000 1.0000000000
0.9450980392 0.0000000000 1.0000000000
1.0000000000 0.0000000000 1.0000000000
1.0000000000 0.0000000000 1.0000000000
1.0000000000 0.0000000000 1.0000000000
0.0000000000 0.2274509804 1.0000000000
0.1411764706 0.1411764706 1.0000000000
0.6588235294 0.0588235294 1.0000000000
1.0000000000 0.0000000000 1.0000000000
1.0000000000 0.0000000000 1.0000000000
1.0000000000 0.0000000000 1.0000000000
0.0000000000 0.5411764706 1.0000000000
0.0000000000 0.4549019608 1.0000000000
0.3725490196 0.3725490196 0.9725490196
0.8862745098 0.2862745098 0.8862745098
1.0000000000 0.2000000000 0.8000000000
1.0000000000 0.1176470588 0.7176470588
0.0000000000 0.8549019608 0.8549019608
0.0000000000 0.7686274510 0.7686274510
0.0862745098 0.6862745098 0.6862745098
0.6000000000 0.6000000000 0.6000000000
1.0000000000 0.5137254902 0.5137254902
1.0000000000 0.4313725490 0.4313725490
0.0000000000 1.0000000000 0.5686274510
0.0000000000 1.0000000000 0.4823529412
0.0000000000 1.0000000000 0.4000000000
0.3137254902 0.9137254902 0.3137254902
0.8274509804 0.8274509804 0.2274509804
1.0000000000 0.7450980392 0.1450980392
0.0000000000 1.0000000000 0.2823529412
0.0000000000 1.0000000000 0.1960784314
0.0000000000 1.0000000000 0.1137254902
0.0274509804 1.0000000000 0.0274509804
0.5411764706 1.0000000000 0.0000000000
1.0000000000 1.0000000000 0.0000000000
0.0000000000 0.0000000000 1.0000000000
0.4000000000 0.0000000000 1.0000000000
0.9137254902 0.0000000000 1.0000000000
1.0000000000 0.0000000000 1.0000000000
1.0000000000 0.0000000000 1.0000000000
1.0000000000 0.0000000000 1.0000000000
0.0000000000 0.2000000000 1.0000000000
0.1137254902 0.1137254902 1.0000000000
0.6274509804 0.0274509804 1.0000000000
1.0000000000 0.0000000000 1.0000000000
1.0000000000 0.0000000000 1.0000000000
1.0000000000 0.0000000000 1.0000000000
0.0000000000 0.5137254902 1.0000000000
0.0000000000 0.4274509804 1.0000000000
0.3411764706 0.3411764706 1.0000000000
0.8588235294 0.2588235294 1.0000000000
1.0000000000 0.1725490196 1.0000000000
1.0000000000 0.0862745098 1.0000000000
0.0000000000 0.8274509804 1.0000000000
0.0000000000 0.7411764706 1.0000000000
0.0549019608 0.6549019608 1.0000000000
0.5725490196 0.5725490196 1.0000000000
1.0000000000 0.4862745098 1.0000000000
1.0000000000 0.4000000000 1.0000000000
0.0000000000 1.0000000000 1.0000000000
0.0000000000 1.0000000000 1.0000000000
0.0000000000 0.9686274510 0.9686274510
0.2862745098 0.8862745098 0.8862745098
0.8000000000 0.8000000000 0.8000000000
1.0000000000 0.7137254902 0.7137254902
0.0000000000 1.0000000000 0.8549019608
0.0000000000 1.0000000000 0.7686274510
0.0000000000 1.0000000000 0.6823529412
0.0000000000 1.0000000000 0.6000000000
0.5137254902 1.0000000000 0.5137254902
1.0000000000 1.0000000000 0.4274509804
0.0000000000 0.0000000000 1.0000000000
0.3686274510 0.0000000000 1.0000000000
0.8862745098 0.0000000000 1.0000000000
1.0000000000 0.0000000000 1.0000000000
1.0000000000 0.0000000000 1.0000000000
1.0000000000 0.0000000000 1.0000000000
0.0000000000 0.1686274510 1.0000000000
0.0862745098 0.0862745098 1.0000000000
0.6000000000 0.0000000000 1.0000000000
1.0000000000 0.0000000000 1.0000000000
1.0000000000 0.0000000000 1.0000000000
1.0000000000 0.0000000000 1.0000000000
0.0000000000 0.4823529412 1.0000000000
0.0000000000 0.4000000000 1.0000000000
0.3137254902 0.3137254902 1.0000000000
0.8274509804 0.2274509804 1.0000000000
1.0000000000 0.1450980392 1.0000000000
1.0000000000 0.0588235294 1.0000000000
0.0000000000 0.7960784314 1.0000000000
0.0000000000 0.7137254902 1.0000000000
0.0274509804 0.6274509804 1.0000000000
0.5411764706 0.5411764706 1.0000000000
1.0000000000 0.4588235294 1.0000000000
1.0000000000 0.3725490196 1.0000000000
0.0000000000 1.0000000000 1.0000000000
0.0000000000 1.0000000000 1.0000000000
0.0000000000 0.9411764706 1.0000000000
0.2549019608 0.8549019608 1.0000000000
0.7725490196 0.7725490196 1.0000000000
1.0000000000 0.6862745098 1.0000000000
0.0000000000 1.0000000000 1.0000000000
0.0000000000 1.0000000000 1.0000000000
0.0000000000 1.0000000000 1.0000000000
0.0000000000 1.0000000000 1.0000000000
0.4862745098 1.0000000000 1.0000000000
1.0000000000 1.0000000000 1.0000000000
